X:1
T:Le forze d' hercole
T:Le forze d' hercole
T:Intabulatura nova di varie sorte di balli da sonare per Arpichordi, Clavicembali, Spinette e Manachordi, 1551
C:Intabulatura nova di varie sorte di balli da sonare per Arpichordi, Clavicembali, Spinette e Manachordi, 1551
%%score { ( 1 3 ) | ( 2 4 5 ) }
L:1/8
Q:1/2=60
M:4/4
K:F
V:1 treble nm="Cembalo" snm="Cbl."
V:3 treble 
V:2 bass 
V:4 bass 
V:5 bass 
V:1
 G^FGA B2 B2 | AGAB c2 A2 | B2[Q:1/2=59]"^.7" A2[Q:1/2=58]"^.2" G2[Q:1/2=55]"^.1" G2 | %3
[Q:1/2=60] [Ad]8 | G^FGA BGAB | AGAB cBAG | %6
 A2[Q:1/2=59]"^.7" G4[Q:1/2=55]"^.1" [^FAd]2[Q:1/2=58]"^.2" |[Q:1/2=47] [G=Bd]8[Q:1/2=60] | %8
 G3 A B2 G2 | A3 B c2 A2 | B2[Q:1/2=59]"^.7" A2[Q:1/2=58]"^.2" G2[Q:1/2=55]"^.1" E2 | %11
[Q:1/2=60] [^FAd]8 | BABc defg | f2 _ed cBAG | %14
 A[Q:1/2=59]"^.9"G"^(sic!)"[Q:1/2=59]"^.4"^F[Q:1/2=58]"^.4"E[Q:1/2=56]"^.8" F[Q:1/2=54]"^.4"G/[Q:1/2=52]"^.9"F/[Q:1/2=51]"^.2" G/[Q:1/2=49]"^.3"F/[Q:1/2=47]"^.1"E/[Q:1/2=44]"^.7"F/ | %15
[Q:1/2=42] [DG=B]8 |] %16
V:2
 [G,B,D]4 [G,B,D]2 [G,B,D]2 | [F,CF]4 [F,CF]2 [F,CF]2 | [G,B,D]2 [F,CF]2 [G,B,D]2 [C,C]2 | D2 D6 | %4
 [G,B,D]4 [G,B,D]2 [G,B,E]2 | [F,CF]4 [F,CF]2 [F,CF]2 | [F,CF]2 [G,B,D]2 [C,C]2 [D,A,D]2 | %7
 G,2 G,6 | G,2 G,6 | F,2 F,6 | G,8 | D2 D6 | B,2 B,6 | B,6 B,2 | [F,CF]2 [G,B,D]2 [C,C]2 [D,A,D]2 | %15
 !arpeggio![G,,D,G,]8 |] %16
V:3
 x8 | x8 | x6 E2 | ^F8 | x8 | x8 | x8 | x8 | x8 | x8 | x8 | x8 | x8 | x8 | x8 | x8 |] %16
V:4
 x8 | x8 | x8 | A,4 A,4 | x8 | x8 | x8 | D,4 D,4 | D,4 D,4 | C,4 C,4 | G,,2 A,,2 B,,2 C,2 | %11
 A,4 A,4 | F,4 F,4 | F,2 F,6 | x8 | x8 |] %16
V:5
 x8 | x8 | x8 | D,6 D,2 | x8 | x8 | x8 | G,,6 G,,2 | G,,6 G,,2 | F,,6 F,,2 | x8 | D,6 D,2 | %12
 B,,6 B,,2 | B,,4 B,,4 | x8 | x8 |] %16

